public/assets/img/arrow-right.svg

<svg width="20" height="20" viewBox="0 0 20 20" fill="none" xmlns="http://www.w3.org/2000/svg">
<path d="M11.1361 15.4232C11.3444 15.4232 11.5462 15.3386 11.722 15.1628L15.9928 10.905C16.1556 10.7422 16.2532 10.5143 16.2532 10.2865C16.2532 10.0586 16.1556 9.82424 15.9928 9.66799L11.735 5.41018C11.5527 5.22788 11.3444 5.14325 11.1361 5.14325C10.6543 5.14325 10.3157 5.4883 10.3157 5.93752C10.3157 6.18492 10.4199 6.38023 10.5697 6.53648L12.0475 8.02085L13.6947 9.53127L12.2298 9.45315H4.60611C4.09179 9.45315 3.74673 9.79169 3.74673 10.2865C3.74673 10.7813 4.09179 11.1198 4.60611 11.1198H12.2298L13.6947 11.0352L12.0475 12.5521L10.5697 14.03C10.4199 14.1862 10.3157 14.3815 10.3157 14.6289C10.3157 15.0847 10.6543 15.4232 11.1361 15.4232Z" fill="#141029" fill-opacity="0.8"/>
</svg>

<svg width="20" height="20" fill="none" xmlns="http://www.w3.org/2000/svg"><path d="M11.136 15.423a.82.82 0 0 0 .586-.26l4.27-4.258a.89.89 0 0 0 .261-.618.877.877 0 0 0-.26-.619L11.735 5.41a.84.84 0 0 0-.599-.267c-.482 0-.82.345-.82.795 0 .247.104.442.254.598l1.477 1.485 1.648 1.51-1.465-.078H4.606c-.514 0-.86.339-.86.834 0 .494.346.833.86.833h7.624l1.465-.085-1.648 1.517-1.477 1.478a.845.845 0 0 0-.254.599c0 .456.338.794.82.794Z" fill="#141029" fill-opacity=".8"/></svg>
